src/lib/packages/icons/src/assets/filled/user-heart.svg

<svg xmlns="http://www.w3.org/2000/svg" width="24" height="24" fill="none"><path fill="currentColor" d="M6.009 6.5c0-2.206 1.794-4 4-4s4 1.794 4 4-1.794 4-4 4-4-1.794-4-4ZM12.6 18.05c-.28-1.42.01-2.79.8-3.76.28-.33.61-.61.99-.81.048-.029.073-.04.11-.07.06-.05.09-.13.09-.21 0-.216-.23-.29-.23-.29-.66-.26-1.44-.41-2.36-.41H8c-4.06 0-5.5 2.97-5.5 5.52 0 2.28 1.21 3.48 3.5 3.48h7.96a.3.3 0 0 0 .3-.3c0-.08-.04-.16-.09-.21-.72-.78-1.34-1.77-1.57-2.94Zm7.172-3.55c-1.324-.006-1.768 1.306-1.768 1.306s-.445-1.312-1.768-1.306c-1.778.009-2.477 1.64-2.157 3.262.522 2.644 3.925 4.166 3.925 4.166s3.403-1.523 3.925-4.166c.32-1.622-.376-3.253-2.157-3.262Z"/></svg>

<svg width="24" height="24" viewBox="0 0 24 24" fill="none" xmlns="http://www.w3.org/2000/svg">
<path d="M6.00903 6.5C6.00903 4.294 7.80303 2.5 10.009 2.5C12.215 2.5 14.009 4.294 14.009 6.5C14.009 8.706 12.215 10.5 10.009 10.5C7.80303 10.5 6.00903 8.706 6.00903 6.5ZM12.6 18.05C12.32 16.63 12.61 15.26 13.4 14.29C13.68 13.96 14.01 13.68 14.39 13.48C14.438 13.451 14.463 13.44 14.5 13.41C14.56 13.36 14.59 13.28 14.59 13.2C14.59 12.984 14.36 12.91 14.36 12.91C13.7 12.65 12.92 12.5 12 12.5H8C3.94 12.5 2.5 15.47 2.5 18.02C2.5 20.3 3.71 21.5 6 21.5H13.96C14.12 21.5 14.26 21.37 14.26 21.2C14.26 21.12 14.22 21.04 14.17 20.99C13.45 20.21 12.83 19.22 12.6 18.05ZM19.772 14.5C18.448 14.494 18.004 15.806 18.004 15.806C18.004 15.806 17.559 14.494 16.236 14.5C14.458 14.509 13.759 16.14 14.079 17.762C14.601 20.406 18.004 21.928 18.004 21.928C18.004 21.928 21.407 20.405 21.929 17.762C22.249 16.14 21.553 14.509 19.772 14.5Z" fill="currentColor"/>
</svg>
